assets/icons/header/parceiros-inactive.svg

<svg preserveAspectRatio="none" width="100%" height="100%" overflow="visible" style="display: block;" viewBox="0 0 24 24" fill="none" xmlns="http://www.w3.org/2000/svg">
<g id="emoji_food_beverage">
<mask id="mask0_0_151" style="mask-type:alpha" maskUnits="userSpaceOnUse" x="0" y="0" width="24" height="24">
<rect id="Bounding box" width="24" height="24" fill="var(--fill-0, #D9D9D9)"/>
</mask>
<g mask="url(#mask0_0_151)">
<path id="emoji_food_beverage_2" d="M5.25 20.5C5.0375 20.5 4.85942 20.4281 4.71575 20.2843C4.57192 20.1404 4.5 19.9622 4.5 19.7497C4.5 19.5371 4.57192 19.359 4.71575 19.2155C4.85942 19.0718 5.0375 19 5.25 19H18.75C18.9625 19 19.1406 19.0719 19.2843 19.2158C19.4281 19.3596 19.5 19.5377 19.5 19.7502C19.5 19.9629 19.4281 20.141 19.2843 20.2845C19.1406 20.4282 18.9625 20.5 18.75 20.5H5.25ZM17.6538 8.25H19.6538C19.7499 8.25 19.8317 8.21958 19.899 8.15875C19.9663 8.09775 20 8.02242 20 7.93275V5.31725C20 5.22758 19.9663 5.15225 19.899 5.09125C19.8317 5.03042 19.7499 5 19.6538 5H17.6538V8.25ZM8.06725 16.6152C7.08275 16.6152 6.24208 16.2717 5.54525 15.5845C4.84842 14.8973 4.5 14.0679 4.5 13.0963V5.19625C4.5 4.72608 4.66517 4.32583 4.9955 3.9955C5.32583 3.66517 5.72608 3.5 6.19625 3.5H9.05775V5.78475L7.39225 7.1385C7.35892 7.17183 7.29225 7.30517 7.19225 7.5385V11.173C7.19225 11.3063 7.24225 11.423 7.34225 11.523C7.44225 11.623 7.55892 11.673 7.69225 11.673H11.3078C11.4411 11.673 11.5578 11.623 11.6578 11.523C11.7578 11.423 11.8078 11.3063 11.8078 11.173V7.5385C11.8078 7.50517 11.7411 7.37183 11.6077 7.1385L9.94225 5.78475V3.5H19.6538C20.1614 3.5 20.5961 3.67658 20.9578 4.02975C21.3193 4.38308 21.5 4.81225 21.5 5.31725V7.93275C21.5 8.43775 21.3193 8.86692 20.9578 9.22025C20.5961 9.57342 20.1614 9.75 19.6538 9.75H17.6538V13.0963C17.6538 14.0679 17.3054 14.8973 16.6087 15.5845C15.9119 16.2717 15.0712 16.6152 14.0865 16.6152H8.06725Z" fill="var(--fill-0, #B0B0B0)"/>
</g>
</g>
</svg>

<svg xmlns="http://www.w3.org/2000/svg" fill="none" overflow="visible" preserveAspectRatio="none" style="display:block" viewBox="0 0 24 24"><mask id="a" width="24" height="24" x="0" y="0" maskUnits="userSpaceOnUse" style="mask-type:alpha"><path fill="var(--fill-0, #d9d9d9)" d="M0 0h24v24H0z"/></mask><g mask="url(#a)"><path fill="var(--fill-0, #b0b0b0)" d="M5.25 20.5a.73.73 0 0 1-.534-.216.73.73 0 0 1-.216-.534q0-.32.216-.535A.73.73 0 0 1 5.25 19h13.5q.318 0 .534.216a.73.73 0 0 1 .216.534q0 .32-.216.535a.73.73 0 0 1-.534.215zM17.654 8.25h2q.144 0 .245-.091A.3.3 0 0 0 20 7.933V5.317a.3.3 0 0 0-.101-.226.35.35 0 0 0-.245-.091h-2zm-9.587 8.365a3.46 3.46 0 0 1-2.522-1.03Q4.5 14.553 4.5 13.096v-7.9q0-.705.495-1.2T6.197 3.5h2.862v2.285L7.392 7.138q-.05.05-.2.4v3.635q0 .2.15.35t.35.15h3.616a.48.48 0 0 0 .35-.15q.15-.15.15-.35V7.539q0-.05-.2-.4L9.942 5.784V3.5h9.712a1.8 1.8 0 0 1 1.304.53q.542.53.542 1.287v2.616q0 .758-.542 1.287a1.8 1.8 0 0 1-1.304.53h-2v3.346q0 1.457-1.045 2.489a3.46 3.46 0 0 1-2.523 1.03z"/></g></svg>
